X:1
T:A minor      Abraham Wood, 1793
T:Isaac Watts, 1707 (Hymn 142, Book 1)     66. 86. (S. M.)
T:Boxborough
T:Transcribed from The Columbian Harmony, 1793.
%%score [ 1 2 3 4 ]
L:1/8
Q:1/4=120
M:4/4
K:C
V:1 treble nm="Tr." snm="Tr."
V:2 treble nm="C." snm="C."
V:3 treble-8 nm="T." snm="T."
V:4 bass nm="B." snm="B."
V:1
"^When God our wand'rings laid,                                        Upon the Shepherd's head!                                         Upon the Shepherd's head!""^2. How dreadful was the hour                               And did at once his vengeance pour,                                  And did at once his vengeance pour,""^1. Like sheep we went astray,                               Each wand'ring in a different way,                                     Each wand'ring in a different way,""^And  broke the fold of  God,                                            But all the downward road.                                         But all the downward road." A8 | %1
 E2 A2 B2 c2 | B6 B2 | B2 B2 e2 dc | B8 | B4 A2 c2 | d2 d2 A2 E2 | A6 A2 | e3 d c2 dc | B8 | %10
 B4 c2 c2 | B2 G2 A2 B2 | c6 c2 | c3 B A2 ^G2 | A8 |] %15
V:2
"^Were taken  both away,                                                And made as vile as they.                                               And made as vile as they.""^4. His  honor  and  his  breath                                 Joined  with  the  wicked in his death,                               Joined with the wicked in his death,""^3. How glorious was the grace                                His life and blood the Shepherd pays                                His life and blood the Shepherd pays""^When Christ sustained the stroke                                  A  ransom  for the  flock.                                               A  ransom  for  the flock." E8 | %1
 G2 A2 E2 E2 | G6 G2 | G2 G2 G2 A2 | G8 | G4 E2 E2 | G2 G2 A2 G2 | A6 A2 | G3 F E2 F2 | E8 | %10
 E4 E2 E2 | E2 E2 E2 G2 | G6 G2 | G3 F E2 E2 | E8 |] %15
V:3
"^6. I'll  give  him, saith the Lord,                             He shall possess a large reward,                                        He shall possess a large reward,""^5. But God shall raise his head                              And make him see a numerous seed,                                 And make him see a num'rous seed,""^O'er all the sons of men,                                                To  recompense  his  pain.                                             To  recompense  his  pain.""^Aportion with the strong;                                               And hold his honors long.                                              And hold his honors long." c8 | %1
 B2 A2 e2 e2 | d6 d2 | e2 e2 g2 f2 | e8 | e4 c2 c2 | B2 B2 A2 Bc | d6 d2 | B3 A G2 F2 | E8 | %10
 E4 A2 A2 | B2 B2 c2 d2 | e6 g2 | e3 d c2 B2 | A8 |] %15
V:4
 A,8 | G,2 F,2 E,2 C,2 | G,6 G,2 | E,2 E,2 C,2 D,2 | E,8 | E,4 A,2 A,2 | G,2 G,2 F,2 E,2 | %7
 D,6 D,2 | E,3 F, E,2 D,2 | E,8 | E,4 A,,2 A,,2 | E,2 E,2 A,2 G,2 | C,6 C,2 | C,3 D, E,2 E,2 | %14
 A,,8 |] %15

